icon-themes/sifr_svg/cmd/sc_diagramaxisxyz.svg

<svg viewBox="0 0 16 16" xmlns="http://www.w3.org/2000/svg"><path d="m6 0v8.6l-1.3-1.3-1.4 1.4 1.3 1.3-1.6 1.6-1.3-1.3-1.4 1.4 1.3 1.3-1.6 1.6 1.4 1.4 6-6h.6 1v2h2v-2h2v2h2v-2h1v-2h-8v-1h2v-2h-2v-2h2v-2h-2v-1z" fill="#555753"/></svg>

<svg xmlns="http://www.w3.org/2000/svg" viewBox="0 0 16 16">
  <path
     style="fill:#555753"
     d="M 6,0 V 8.6 L 4.7,7.3 3.3,8.7 4.6,10 3,11.6 1.7,10.3 0.3,11.7 1.6,13 0,14.6 1.4,16 l 6,-6 H 8 9 v 2 h 2 v -2 h 2 v 2 h 2 v -2 h 1 V 8 H 8 V 7 h 2 V 5 H 8 V 3 h 2 V 1 H 8 V 0 Z"
     />
</svg>
